images/skills_img-1.svg

<svg width="147" height="147" viewBox="0 0 147 147" fill="none" xmlns="http://www.w3.org/2000/svg">
<path d="M114.335 80.4213C114.335 54.6534 94.8701 33.6875 70.9459 33.6875C47.0216 33.6875 27.5625 54.6534 27.5625 80.4213C27.5625 92.3466 31.7398 103.702 39.3225 112.406C40.3454 113.57 42.042 113.625 43.12 112.529L47.7995 107.788C48.3194 107.241 48.6194 106.522 48.642 105.768C48.6646 105.015 48.4082 104.279 47.922 103.702C42.3558 97.2305 39.3188 88.9635 39.3715 80.4274C39.3715 61.6665 53.5325 46.4091 70.9459 46.4091C88.3592 46.4091 102.526 61.6665 102.526 80.4274C102.579 88.9646 99.5396 97.2322 93.9697 103.702L93.9759 103.709C93.4909 104.285 93.2358 105.02 93.2596 105.773C93.2833 106.526 93.5842 107.243 94.1045 107.788L98.784 112.522C99.862 113.625 101.565 113.564 102.581 112.4C110.158 103.702 114.335 92.3466 114.335 80.4274V80.4213ZM134.75 80.5438C134.75 74.2963 133.782 68.1345 131.871 62.23V62.2116L131.859 62.1933C131.604 61.4748 131.081 60.8826 130.4 60.5402C129.718 60.1979 128.931 60.1318 128.202 60.3558L121.502 62.3709C121.139 62.4726 120.8 62.6461 120.505 62.8811C120.21 63.1162 119.966 63.408 119.786 63.7392C119.606 64.0705 119.494 64.4345 119.458 64.8096C119.421 65.1848 119.46 65.5635 119.572 65.9234H119.566C121.682 72.4811 122.346 79.4207 121.512 86.2607C120.677 93.1007 118.364 99.6772 114.734 105.534H114.74C114.545 105.854 114.416 106.21 114.362 106.581C114.308 106.952 114.33 107.33 114.425 107.693C114.521 108.056 114.688 108.395 114.918 108.691C115.148 108.988 115.435 109.234 115.762 109.417L121.771 112.908C123.162 113.717 124.956 113.276 125.795 111.934C131.641 102.505 134.742 91.6321 134.75 80.5376" fill="white"/>
<path d="M32.2665 105.546C28.6374 99.6876 26.3259 93.1098 25.4925 86.269C24.6591 79.4281 25.3236 72.4879 27.44 65.9295C27.5514 65.5696 27.5897 65.1911 27.5527 64.8162C27.5156 64.4413 27.4038 64.0776 27.224 63.7466C27.0443 63.4155 26.8 63.1238 26.5058 62.8886C26.2115 62.6534 25.8731 62.4794 25.5106 62.377L18.816 60.3557C18.0856 60.1287 17.2955 60.194 16.6123 60.5379C15.9291 60.8818 15.406 61.4774 15.1532 62.1994H15.141C12.4755 70.4349 11.6372 79.1524 12.6845 87.7449C13.7317 96.3375 16.6393 104.598 21.2047 111.953H21.217C21.635 112.597 22.2848 113.055 23.0318 113.233C23.7787 113.411 24.5654 113.295 25.2289 112.908L31.2436 109.417C31.5686 109.234 31.8536 108.988 32.0817 108.693C32.3099 108.399 32.4766 108.061 32.572 107.701C32.6673 107.34 32.6894 106.965 32.637 106.595C32.5845 106.226 32.4585 105.872 32.2665 105.552V105.546Z" fill="white"/>
</svg>

<svg width="147" height="147" fill="none" xmlns="http://www.w3.org/2000/svg"><path d="M114.335 80.421c0-25.768-19.465-46.734-43.39-46.734-23.923 0-43.382 20.966-43.382 46.734 0 11.926 4.177 23.281 11.76 31.985 1.022 1.164 2.719 1.219 3.797.123l4.68-4.741a3.065 3.065 0 00.122-4.086 35.358 35.358 0 01-8.55-23.275c0-18.76 14.16-34.018 31.574-34.018 17.413 0 31.58 15.258 31.58 34.018a35.337 35.337 0 01-8.556 23.275l.006.007a3.054 3.054 0 00.129 4.079l4.679 4.734c1.078 1.103 2.781 1.042 3.797-.122 7.577-8.698 11.754-20.053 11.754-31.973v-.006zm20.415.123a59.38 59.38 0 00-2.879-18.314v-.018l-.012-.019a2.958 2.958 0 00-3.657-1.837l-6.7 2.015a2.822 2.822 0 00-1.716 1.368 2.818 2.818 0 00-.214 2.184h-.006a47.504 47.504 0 01-4.832 39.611h.006a2.783 2.783 0 001.022 3.883l6.009 3.491c1.391.809 3.185.368 4.024-.974a59.665 59.665 0 008.955-31.396" fill="#fff"/><path d="M32.267 105.546a47.518 47.518 0 01-4.827-39.617 2.826 2.826 0 00-1.93-3.552l-6.694-2.021a2.953 2.953 0 00-3.663 1.843h-.012a59.557 59.557 0 006.064 49.754h.012a2.989 2.989 0 004.012.955l6.015-3.491a2.788 2.788 0 001.023-3.865v-.006z" fill="#fff"/></svg>
